X:0403
T:Tibby Fowler in the Glen
T:Strathspey
M:C
L:1/8
I: || ||
Z:Jack Campin * www.campin.me.uk * 2009
K:A Dorian
E>AA>B GA B2|eAA>B G>AG<E|E<(AA)>B G>ABd |eAAB  G>AGE::
g>eeg  d>edB|g>eeg a>gef |g>ef>d   e>dBG |A>cBA G>AGE |
g>eeg  d>edB|g>eeg a>gab |g>ef>d   e>dB>G|A>cBA G>AGE|]

